icon-svg/rvn.svg

<svg xmlns="http://www.w3.org/2000/svg" fill="#44739e" viewBox="0 0 24 24"><path d="M12 1.961a10 10 0 1 0 10 10 10 10 0 0 0-10-10m2.042 4.878L11 7.835l2.062-1.429Zm-.617-.851-.412-.488-.052-.05-.061-.078.986.463-.15.462-.017.054-.031-.051-.207-.247Zm.821 1.06.377 1.66-3.785-.539zm-.355-.574L14 6.141l.135.459Zm-.417-1.221.612.4-1.3-.492zm-.909-.021.772 1.029-1.462-.661Zm-.9.533.788.354-1.153.038Zm-.514.655 1.165-.039-1.326.539Zm-.248.793 1.318-.528L10.59 7.81ZM8.13 18.533l2.07-9.618 1.164 7.219zm3.486-2.484L10.485 9.09l3.025 6.992zm-1.144-7.666 4.183.594-.969 6.844zm3.674 6.05.737-5.23.484.613zm.279-7.733-.217-.809 1.568.438Z"/></svg>

<?xml version="1.0" encoding="UTF-8"?>
<svg width="24px" fill="#44739e" height="24px" viewBox="0 0 24 24" version="1.1" xmlns="http://www.w3.org/2000/svg" xmlns:xlink="http://www.w3.org/1999/xlink">
            <path d="m 12,1.961 a 10,10 0 1 0 10,10 10,10 0 0 0 -10,-10 z M 14.042,6.839 11,7.835 13.062,6.406 Z M 13.425,5.988 13.013,5.5 12.961,5.45 12.9,5.372 13.886,5.835 13.736,6.297 13.719,6.351 13.688,6.3 13.481,6.053 Z m 0.821,1.06 0.377,1.66 -3.785,-0.539 z M 13.891,6.474 14,6.141 14.135,6.6 Z m -0.417,-1.221 0.612,0.4 -1.3,-0.492 z M 12.565,5.232 13.337,6.261 11.875,5.6 Z m -0.9,0.533 0.788,0.354 L 11.3,6.157 Z M 11.151,6.42 12.316,6.381 10.99,6.92 Z M 10.903,7.213 12.221,6.685 10.59,7.81 Z m -2.773,11.32 2.07,-9.618 1.164,7.219 z m 3.486,-2.484 -1.131,-6.959 3.025,6.992 z m -1.144,-7.666 4.183,0.594 -0.969,6.844 z m 3.674,6.05 0.737,-5.23 0.484,0.613 z M 14.425,6.7 14.208,5.891 15.776,6.329 Z"/>

</svg>
